X:1
T:Title
%%score { ( 1 3 ) | ( 2 4 ) }
L:1/8
M:4/4
K:Bb
V:1 treble nm="Grand Piano"
V:3 treble 
V:2 bass 
V:4 bass 
V:1
 z4 z2[Q:1/4=100] [DF][DB] | [Fd]3 [Ec] [DB]2 [FA]2 | [Gc] [GB]3- [GB]2 [GB][GB] | A3 G E2 G2 | %4
[M:3/4] [DF]6 |[M:1/4] [DF][DB] |[M:4/4] [Fd]3 [Ec] [DB]2 [FA]2 | [Gc] [GB]3- [GB]2 [GB][GB] | %8
 A3 G A2 F2 |[M:3/4] [DB]6 |[M:1/4] [DF][DB] |[M:4/4] [Fd][Fd][DB][DB] [Ec][DB][DF][DF] | %12
 z G3- G2 z2 | A2 AG EE F>E | D6[K:bass] z2[K:treble] | [Fd][Fd][DB][DB] [Ec][DB][DF][FB] | %16
 z G3- G2 z2 | A2 AG FFGA |[M:3/4] B6 |] %19
V:2
 z4 z2 [B,,F,][B,,F,] | [B,,B,]3 [B,,B,] [B,,B,]2 [D,B,]2 | [E,B,] [E,B,]3- [E,B,]2 [E,E][E,E] | %3
 [F,CE]3 [F,B,E] [F,A,C]2 [F,A,E]2 |[M:3/4] [B,,B,]6 |[M:1/4] [B,,B,][B,,B,] | %6
[M:4/4] [B,,B,]3 [B,,B,] [B,,B,]2 [D,B,]2 | [E,B,] [E,B,]3- [E,B,]2 [E,E][E,E] | %8
 [F,CE]3 [F,CE] [F,CE]2 [F,A,E]2 |[M:3/4] [B,,B,]6 |[M:1/4] [B,,B,][B,,B,] | %11
[M:4/4] [B,,B,][B,,B,][B,,F,][B,,F,] [B,,F,][B,,F,][B,,B,][B,,B,] | %12
 [E,B,][E,B,E][E,B,][E,B,] [E,B,][E,B,][C,C][C,C] | %13
 [F,CF]2 [F,CE][F,B,E] [F,A,C][F,A,C] [F,A,C]>[F,A,C] | .B,2 G,G, F,2 B,,[B,,F,] | %15
 [B,,B,][B,,B,][B,,F,][B,,F,] [B,,F,][B,,F,][B,,B,][D,B,] | %16
 [E,B,][E,B,E][E,B,][E,B,] [E,B,][E,B,][C,C][C,C] | %17
 [F,CF]2 [F,CE][F,B,E] [F,A,E][F,A,E][F,B,E][F,CE] |[M:3/4] z F, G,G, F,2 |] %19
V:3
 x8 | x8 | x8 | x8 |[M:3/4] x6 |[M:1/4] x2 |[M:4/4] x8 | x8 | x8 |[M:3/4] x6 |[M:1/4] x2 | %11
[M:4/4] x8 | .[FA]2 EE EE[=EG][EG] | x8 | z[K:bass] F,B,B, B,2 [F,DF][K:treble][DB] | x8 | %16
 .[FA]2 EE EE[=EG][EG] | x8 |[M:3/4] .[B,D]2 EE D2 |] %19
V:4
 x8 | x8 | x8 | x8 |[M:3/4] x6 |[M:1/4] x2 |[M:4/4] x8 | x8 | x8 |[M:3/4] x6 |[M:1/4] x2 | %11
[M:4/4] x8 | x8 | x8 | B,,6 z2 | x8 | x8 | x8 |[M:3/4] B,,6 |] %19

